svgs/solid/spray-can.svg

<svg xmlns="http://www.w3.org/2000/svg" viewBox="0 0 512 512"><!-- Font Awesome Pro 6.0.0-alpha2 by @fontawesome - https://fontawesome.com License - https://fontawesome.com/license (Commercial License) --><path d="M224 32C224 14.375 209.625 0 192 0H128C110.375 0 96 14.375 96 32V128H224V32ZM480 128C462.375 128 448 142.375 448 160S462.375 192 480 192S512 177.625 512 160S497.625 128 480 128ZM224 160H96C43 160 0 203 0 256V480C0 497.625 14.375 512 32 512H288C305.625 512 320 497.625 320 480V256C320 203 277 160 224 160ZM160 416C115.875 416 80 380.125 80 336S115.875 256 160 256S240 291.875 240 336S204.125 416 160 416ZM480 96C497.625 96 512 81.625 512 64S497.625 32 480 32S448 46.375 448 64S462.375 96 480 96ZM384 128C366.375 128 352 142.375 352 160S366.375 192 384 192S416 177.625 416 160S401.625 128 384 128ZM288 32C270.375 32 256 46.375 256 64S270.375 96 288 96S320 81.625 320 64S305.625 32 288 32ZM384 32C366.375 32 352 46.375 352 64S366.375 96 384 96S416 81.625 416 64S401.625 32 384 32ZM480 224C462.375 224 448 238.375 448 256S462.375 288 480 288S512 273.625 512 256S497.625 224 480 224Z"/></svg>

<svg xmlns="http://www.w3.org/2000/svg" viewBox="0 0 512 512"><!-- Font Awesome Pro 5.15.1 by @fontawesome - https://fontawesome.com License - https://fontawesome.com/license (Commercial License) --><path d="M224 32c0-17.67-14.33-32-32-32h-64c-17.67 0-32 14.33-32 32v96h128V32zm256 96c-17.67 0-32 14.33-32 32s14.33 32 32 32 32-14.33 32-32-14.33-32-32-32zm-256 32H96c-53.02 0-96 42.98-96 96v224c0 17.67 14.33 32 32 32h256c17.67 0 32-14.33 32-32V256c0-53.02-42.98-96-96-96zm-64 256c-44.18 0-80-35.82-80-80s35.82-80 80-80 80 35.82 80 80-35.82 80-80 80zM480 96c17.67 0 32-14.33 32-32s-14.33-32-32-32-32 14.33-32 32 14.33 32 32 32zm-96 32c-17.67 0-32 14.33-32 32s14.33 32 32 32 32-14.33 32-32-14.33-32-32-32zm-96-96c-17.67 0-32 14.33-32 32s14.33 32 32 32 32-14.33 32-32-14.33-32-32-32zm96 0c-17.67 0-32 14.33-32 32s14.33 32 32 32 32-14.33 32-32-14.33-32-32-32zm96 192c-17.67 0-32 14.33-32 32s14.33 32 32 32 32-14.33 32-32-14.33-32-32-32z"/></svg>
